X:1
T:Caprice No. 07
T:Caprice No. 07
T:Op. 20
T:Luigi Legnani (1790 - 1877)
C:Luigi Legnani
%%score ( 1 2 )
L:1/8
Q:1/4=160
M:3/8
K:A
V:1 treble-8 nm="Classical Guitar" snm="Guit."
V:2 treble-8 
V:1
"^Prestissimo"!f! !>!e- | ef/g/a/b/ | c'c' !>!g- | ga/b/c'/d'/ | e'e' e' | (e'^d')!wedge!d' | %6
 (^d'=d')!wedge!d' | d'c'=c' | b2 !>!e- | ef/g/a/b/ | c'c' !>!g- | ga/b/c'/d'/ | e'e' e' | %13
 [a=f'][ae'][a^d'] | [ge'][ge'][ge'] | [fd'][fc'][f^b] | [^ec'][ec'][ec'] | [dfb]c'd' | %18
 z [cea][cea] | z [Bdg][Bdg] | [Aca]2 :: e | (d'/b/)g/e/(d/B/) | z3 | z3 | a/c'/(e'/c'/)a/c'/ | %26
 (d'/b/)g/e/ z/ [eg]/ | z/ [eg]/ z/ [eg]/ z/ [eg]/ | z [cea][Bdg] | [Aca]2 ::[K:D]!ff! [dd'] | %31
 [dd']2 [dd'] | [dd']2 [dd'] | [dd'][cc'][Bb] | [Aa]2!p! [Ad] | [Ad][Ac][Ae] | [Ae][Ad][Af] | %37
 [Af][Ae][^Gd] | [Ac]2!f! [dd'] | [dd']2 [dd'] | [dd']2 [dd'] | [dd'][cc'][Bb] | [Aa]2 a | %43
!p! [d_b][da][d^g] | [ca][ca][ca] | [Bg][Bf][B^e] | [^Af][Af][Af] | [GBe]fg | z [FAd][FAd] | %49
 z [EGc][EGc] | [FAd]2 :|!f! f | z2 !>!e | z2 !>!d | z2 !>!c | z3 | z2 !>!e | z2 !>!d | %58
 z [EGc][EGc] | [FAd]2 f | z2 !>!e | z2 !>!d | z2 !>!c | z3 | z2 !>!e | z2 !>!d | z [EGc][EGc] | %67
 [FAd]2 e- ||[K:A] ef/g/a/b/ | c'c' !>!g- | ga/b/c'/d'/ | e'e' e' | (e'^d')!wedge!d' | %73
 (^d'=d')!wedge!d' | d'c'=c' | b2 !>!e- | ef/g/a/b/ | c'c' !>!g- | ga/b/c'/d'/ | e'e' e' | %80
 [a=f'][ae'][a^d'] | [ge'][ge'][ge'] | [fd'][fc'][f^b] | [^ec'][ec'][ec'] | [dfb]c'd' | %85
 z [cea][cea] | z [Bdg][Bdg] | [Aca]2 e | (d'/b/)g/e/(d/B/) | z3 | z3 | a/c'/(e'/c'/)a/c'/ | %92
 (d'/b/)g/e/ z/ [eg]/ | z/ [eg]/ z/ [eg]/ z/ [eg]/ | z [cea][Bdg] | [Aca]2 |] %96
V:2
 z | A,2 z | z3 | A,2 z | z2 [ce] | ([ce][^B^d])!wedge![Bd] | ([^B^d][=B=d])!wedge![Bd] | %7
 [Bd][^Ac][=A=c] | [GB]2 z | A,2 z | z3 | A,2 z | z2 e | =fff | eee | ddd | ccc | D2 z | E,2 z | %19
 E,2 z | A,2 :: z | E,2 z | G/(E/D/)B,/(G,/E,/) | (A,/C/)E/A/c/e/ | z3 | E,2 =f | e^d=d | A,2 E, | %29
 A,2 ::[K:D] D | D2 D | D2 D | DCB, | A,2 F | FGG | GFD | DCB, | A,2 D | D2 D | D2 D | DCB, | %42
 A,2 A | _BBB | AAA | GGG | FFF | G,2 z | A,2 z | A,2 z | D2 :| z | D/G/c/f/ z | D/F/A/e/ z | %54
 A,/E/G/d/ z | D/F/A/d/f/a/ | D/G/c/f/ z | D/F/A/e/ z | A,2 z | D2 z | D/G/c/f/ z | D/F/A/e/ z | %62
 A,/E/G/d/ z | D/F/A/d/f/a/ | D/G/c/f/ z | D/F/A/e/ z | A,2 z | D2 z ||[K:A] A,2 z | z3 | A,2 z | %71
 z2 [ce] | ([ce][^B^d])!wedge![Bd] | ([^B^d][=B=d])!wedge![Bd] | [Bd][^Ac][=A=c] | [GB]2 z | %76
 A,2 z | z3 | A,2 z | z2 e | =fff | eee | ddd | ccc | D2 z | E,2 z | E,2 z | A,2 z | E,2 z | %89
 G/(E/D/)B,/(G,/E,/) | (A,/C/)E/A/c/e/ | z3 | E,2 =f | e^d=d | A,2 E, | A,2 |] %96

